X: 3032
M: C|
L: 1/8
K: C
c e2 (fe/f/) | g3a aaag/f/ |\
gggg aaag/f/ | gagf e2d2 |\
c3 :: c d2e2 | d3c defe |\
dedc B2A2 |
d3c defd | gfed cdd>c |\
c3 :: g edec | d2dg edec |
d3 :: d BGcd | e/d/e/f/ ea ^fga^f |\
g3g fedc | d/c/B/A/ Gg cd d>c |\


